src/lib/packages/icons/src/assets/filled/crown.svg

<svg width="24" height="24" viewBox="0 0 24 24" fill="none" xmlns="http://www.w3.org/2000/svg">
<path d="M19.9 19.42C19.951 19.723 19.717 20 19.41 20H4.59005C4.28205 20 4.048 19.723 4.1 19.42L4.50802 17C4.53202 16.856 4.65704 16.75 4.80404 16.75H19.197C19.343 16.75 19.468 16.856 19.493 17L19.9 19.42ZM19.49 7.53L16.99 9.04001C16.538 9.31301 15.951 9.181 15.66 8.74L12.821 4.44102C12.433 3.85302 11.57 3.85201 11.18 4.44001L8.34005 8.73002C8.05005 9.18002 7.46003 9.31001 7.00003 9.03L4.51003 7.53C3.77003 7.08 2.85004 7.72001 3.02004 8.57001L4.46701 15.016C4.49801 15.153 4.61903 15.25 4.76003 15.25H19.24C19.38 15.25 19.502 15.153 19.533 15.016L20.98 8.57001C21.15 7.72001 20.23 7.08 19.49 7.53Z" fill="currentColor"/>
</svg>

<svg xmlns="http://www.w3.org/2000/svg" width="24" height="24" fill="none"><path fill="currentColor" d="M19.9 19.42a.498.498 0 0 1-.49.58H4.59a.497.497 0 0 1-.49-.58L4.508 17a.3.3 0 0 1 .296-.25h14.393c.146 0 .271.106.296.25l.407 2.42Zm-.41-11.89-2.5 1.51a.984.984 0 0 1-1.33-.3l-2.839-4.299a.984.984 0 0 0-1.641-.001L8.34 8.73a.98.98 0 0 1-1.34.3l-2.49-1.5c-.74-.45-1.66.19-1.49 1.04l1.447 6.446a.3.3 0 0 0 .293.234h14.48a.3.3 0 0 0 .293-.234L20.98 8.57c.17-.85-.75-1.49-1.49-1.04Z"/></svg>
